T: Rising Of The Sun, The
M: 4/4
L: 1/8
K: Dmaj
d2 F>B A2 F>A | (3Bcd e>g f>B (3cBA | d2 F>B A2 F>D | E>GF>E  Dgfe |d2 F>B A2 F>A | (3Bcd e>g f>B (3cBA | d2 d>B A2 F>A | B>dc>B A2 :|d>ef>g a>fe>d | (3cBA eA fA eA | d>ef>g a>fe>d | (3cBA B>c d3 A |d>ef>g a>fe>d | (3cBA eA fA eA |[1 d>ef>g a>ba>g | f>gf>e d2 :|
